!!!!SEGMENT: pl-wnifc--6730-n--013_sowinski-wojciech--chants-religieux-de-la-pologne-op-93-lauda-sion-salvatorem.krn
!!!cenid: 18xx:4027
!!!COM: Sowiński, Wojciech
!!!COM-rismID: pe30008543
!!!CDT: ~1803-1880/03/05
!!!CNT:
!!!OTL: Chants religieux de la Pologne op. 93
!!!PDT: 1830
!!!AGN:
!!!SMS-siglum: PL-Wnifc
!!!SMS-shelfmark: 6730/n
!!!SMS-shelfwork: 013 W
!!!SMS-variant:
!!!SMS-altvar:
!!!NIFC-rismSourceID: 1001138221
!!!NIFC-rismChildID: 1001138235
!!!NIFC-islandoraID: nifc:213350
!!!URL-pdf-islandora: https://repozytorium.nifc.pl/islandora/object/nifc%3A213350/datastream/PDF/view
!!!URL-scan: https://polish.musicsources.pl/pl/lokalizacje/galeria/druki-muzyczne/16913 @EN{Scan on Polish Music Sources Website} @PL{Skany w portalu Dziedzictwo Muzyki Polskiej w otwartym dostępie}
!!!ONB-nifc: UWAGA: str. 49-51
!!!AIN: 2 organ 2 soprn
!!!key: G
**kern	**kern	**dynam	**kern	**text	**dynam	**kern	**text	**dynam
*part4	*part3	*part3	*part2	*part2	*part2	*part1	*part1	*part1
*staff4	*staff3	*	*staff2	*staff2	*	*staff1	*staff1	*
*I"Organo	*I"ORGUE.	*	*I"2o. DESSUS.	*	*	*I"1er. DESSUS.	*	*
*	*I'org	*	*I'2 D	*	*	*I'1 D	*	*
*Iorgan	*Iorgan	*	*Isoprn	*	*	*Isoprn	*	*
*ICklav	*ICklav	*	*ICvox	*	*	*ICvox	*	*
*clefF4	*clefG2	*	*clefG2	*	*	*clefG2	*	*
*k[f#]	*k[f#]	*	*k[f#]	*	*	*k[f#]	*	*
*G:	*G:	*	*G:	*	*	*G:	*	*
*M4/4	*M4/4	*	*M4/4	*	*	*M4/4	*	*
*met(c)	*met(c)	*	*met(c)	*	*	*met(c)	*	*
=1	=1	=1	=1	=1	=1	=1	=1	=1
*	*^	*	*	*	*	*	*	*
!	!LO:TX:a:t=Moderato.	!	!	!	!	!	!	!	!
!	!LO:TX:b:t=legato.	!	!	!	!	!	!LO:TX:a:t=Moderato.	!	!
2GG\ 2G	4g/	4B\	p	1r	.	.	1r	.	.
.	4b/	4d\	.	.	.	.	.	.	.
4C/	4a/	2e\	.	.	.	.	.	.	.
4C#X/	4g/	.	.	.	.	.	.	.	.
=2	=2	=2	=2	=2	=2	=2	=2	=2	=2
*^	*	*	*	*	*	*	*	*	*
4ryy	4D\	4f#/	4d\	.	1r	.	.	1r	.	.
8A/L	4AA\	4e/	4c#X\	.	.	.	.	.	.	.
8G/J	.	.	.	.	.	.	.	.	.	.
2F#/	4D\	4ryy	2d\	.	.	.	.	.	.	.
.	4Cn\	8e/L	.	<	.	.	.	.	.	.
.	.	8f#/J	.	.	.	.	.	.	.	.
*v	*v	*	*	*	*	*	*	*	*	*
=3	=3	=3	=3	=3	=3	=3	=3	=3	=3
4BB\	4g/	2d\	.	1r	.	.	1r	.	.
4AA\ 4F#	4a/	.	.	.	.	.	.	.	.
4GG\ 4G	4b/	4d\	[	.	.	.	.	.	.
4C\	4cc/	4e\	.	.	.	.	.	.	.
*	*v	*v	*	*	*	*	*	*	*
=4	=4	=4	=4	=4	=4	=4	=4	=4
2D\	2d/ 2g 2b	>	1r	.	.	1r	.	.
2D\	2d/ 2f# 2a	]]	.	.	.	.	.	.
=5	=5	=5	=5	=5	=5	=5	=5	=5
*^	*	*	*	*	*	*	*	*
!	!	!	!	!	!	!	!	!	!LO:DY:a
!	!	!	!	!	!	!LO:DY:a	!	!	!LO:DY:a
2G\	2GG\	(>4B/ 4g	mf <	4B'/	Lau-	mf <	4g/	Lau-	mf <
.	.	4d/ 4b	.	4d'/	-da	.	4b/	-da	.
!	!	!	!	!	!	!LO:DY:a	!	!	!LO:DY:a
4F#/	2GG\	4d/ 4a	[ >	4c'/	Si-	[ >	4a/	Si-	[ >
4G/	.	4B/) 4g	]]	4B'/	-on	]]	4g/	-on	]]
*v	*v	*	*	*	*	*	*	*	*
=6	=6	=6	=6	=6	=6	=6	=6	=6
!	!	!	!	!	!LO:DY:a	!	!	!LO:DY:a
[2D\ 2F#	(>4d/ 4a	<	4d'/	sal-	<	4a/	sal-	<
.	4a/ 4cc	.	4a'/	-va-	.	4cc/	-va-	.
!	!	!	!	!	!LO:DY:a	!	!	!LO:DY:a
4D\] 4G	4g/ 4b	[ >	4g'/	-to-	[ >	4b/	-to-	[ >
4F#\	4d/) 4a	]]	4d'/	-rem	]]	4a/	-rem	]]
=7	=7	=7	=7	=7	=7	=7	=7	=7
*^	*	*	*	*	*	*	*	*
2G\	2GG\	(4B/ 4g	.	4B'/	Lau-	.	4g/	Lau-	.
.	.	(>4d/ 4b	.	4g'/	-da	.	4b/	-da	.
4D/	2GG\	4c/ 4a	.	4d'/	du-	.	4a/	du-	.
4G/	.	4B/)) 4g	.	4B'/	-cem	.	4g/	-cem	.
=8	=8	=8	=8	=8	=8	=8	=8	=8	=8
2F#\	2D\	(4d/ 4a	.	4d'/	et	.	4a/	et	.
.	.	4a/ 4cc	.	4a'/	pas-	.	4cc/	pas-	.
4G/	2GG\	4g/ 4b	.	4g'/	-to-	.	4b/	-to-	.
4F#/	.	4d/) 4a	.	4d'/	-rem	.	4a/	-rem	.
=9	=9	=9	=9	=9	=9	=9	=9	=9	=9
*	*	*^	*	*	*	*	*	*	*
!	!	!	!	!	!	!	!LO:DY:a	!	!	!
8E/L	2GG\	(4cc/	4e\	<	(8e/L	In	<	4cc/	In	>
8F#/J	.	.	.	.	8f#/J)	.	.	.	.	.
4G/	.	4b/	4d\	[ >	4g/	hym-	[	4b/	hym-	.
4DD#X/ 4D#X	2ryy	4f#/ 4a	4B/	.	4f#/	-nis	.	4a/	-nis	]
4EE/ 4E	.	4g/)	4B/	.	4g/	et	.	4g/	et	.
=10	=10	=10	=10	=10	=10	=10	=10	=10	=10	=10
4Dn^/	2DD\	4b/	[>4d/	]	4d^/	can-	.	4b/	can-	.
4F#/	.	4a/	8d\L]	.	(8d/L	-ti-	.	4a/	-ti-	.
.	.	.	8c\J	.	8c/J)	.	.	.	.	.
4G/	4GG\	4g/	4B\	p	4B/	-cis	.	4g/	-cis	.
4r	4ryy	4r	4ryy	.	4r	.	.	4r	.	.
*v	*v	*	*	*	*	*	*	*	*	*
*	*v	*v	*	*	*	*	*	*	*
=11	=11	=11	=11	=11	=11	=11	=11	=11
!	!	!	!	!	!	!	!	!LO:DY:a
4GG\ 4G	4d/ 4b 4dd	f	4b\	Quan-	f	4dd\	Quan-	f
4G\ 4B	4d/ 4b 4dd	.	4b\	-tum	.	4dd\	-tum	.
4B\ 4d	4d/ 4b 4dd	.	4b\	po-	.	4dd\	po-	.
4r	8.e^\L 8.cc 8.ee	.	(8.cc^\L	-tes	.	(8.ee^\L	-tes	.
.	16d\Jk 16b 16dd	.	16b\Jk)	.	.	16dd\Jk)	.	.
=12	=12	=12	=12	=12	=12	=12	=12	=12
4DD/ 4D	4d^/ 4a 4cc	.	4a/	Tan-	.	4cc\	Tan-	.
4D\ 4F#	4d^/ 4a 4cc	.	4a/	-tum	.	4cc\	-tum	.
4F#\ 4A	4d/ 4a 4cc	.	4a/	au-	.	4cc\	au	.
4r	8.d/L 8.b 8.dd	.	(8.b^/L	-de	.	(8.dd\L	de	.
.	16a/Jk 16cc	.	16a/Jk)	.	.	16cc\Jk)	.	.
=13	=13	=13	=13	=13	=13	=13	=13	=13
4GG/ 4G	4g^/ 4b	.	4g/	Qui-	.	4b\	Qui-	.
4GGG^>/ 4GG	4g^/ 4b	.	4g/	-a	.	4b\	-a	.
4BBB^>/ 4BB	4g^/ 4b	.	4g/	ma-	.	4b\	ma-	.
8.CC/L 8.C	8.a^/L 8.cc	.	(8.a/L	-jor	.	(8.cc\L	-jor	.
16CC#X/Jk 16C#X	16g/Jk 16b	.	16g/Jk)	.	.	16b\Jk)	.	.
=14	=14	=14	=14	=14	=14	=14	=14	=14
[2DD/ [<2D	(8f#/L 8a	<	(8f#/L	om-	.	(8a/L	om-	.
.	8e/ 8g	[	8e/J)	.	.	8g/J)	.	.
.	8d/ 8f#	>	(8d/L	-ni	.	(8f#/L	-ni	.
.	8e/J) 8g	]	8e/J)	.	.	8g/J)	.	.
4DD/] 4D]	2f#^/ 2a	.	4f#/	Lau-	.	4a/	Lau-	.
4CCn/ 4Cn	.	.	4f#/	-de	.	4a/	-de	.
=15	=15	=15	=15	=15	=15	=15	=15	=15
*	*^	*	*	*	*	*	*	*
!	!	!	!	!	!	!	!	!	!LO:DY:a
4BBB/ 4BB	4g/	4ryy	f <	4g/	nec	.	4g/	nec	<
4GGG/ 4GG	4b/	8g\L	.	(8g/L	lau-	.	4b/	lau-	.
.	.	8fn\J	.	8fn/J)	.	.	.	.	.
4CC/ 4C	4cc/	4e\	.	4e/	-da-	.	4cc/	-da-	.
4DD/ 4D	4a/	4f#X\	.	4f#X/	-re	.	4a/	-re	[
*	*v	*v	*	*	*	*	*	*	*
=16	=16	=16	=16	=16	=16	=16	=16	=16
*^	*	*	*	*	*	*	*	*
4G/	2GG\	4g^/ 4b	[	4g^>/	suf-	.	4b^>/	suf-	.
4F#/	.	4d^/ 4a	.	4d^>/	-fi-	.	4a^>/	-fi-	.
4GG/ 4G	2ryy	4B^/ 4g	.	4B^>/	-cis	.	4g^>/	-cis	.
4r	.	4r	.	4r	.	.	4r	.	.
=17	=17	=17	=17	=17	=17	=17	=17	=17	=17
2.E/	4EE\	(<4d/ 4g#X 4b	mf <	1r	.	.	1r	.	.
.	4ryy	4b\ 4dd	.	.	.	.	.	.	.
.	2ryy	4e/ 4a 4cc	.	.	.	.	.	.	.
8F#/L	.	4d/) 4b	[	.	.	.	.	.	.
8G#X/J	.	.	.	.	.	.	.	.	.
*v	*v	*	*	*	*	*	*	*	*
=18	=18	=18	=18	=18	=18	=18	=18	=18
4A\	(4c/ 4a	.	1r	.	.	1r	.	.
4Gn\	4e-X/ 4cc	.	.	.	.	.	.	.
4.D\	4d/ 4b	.	.	.	.	.	.	.
.	4c/) 4a	.	.	.	.	.	.	.
16E\LL	.	.	.	.	.	.	.	.
16F#\JJ	.	.	.	.	.	.	.	.
=19	=19	=19	=19	=19	=19	=19	=19	=19
4G\	(4B/ 4b	>	1r	.	.	1r	.	.
4E\	4g/ 4b	.	.	.	.	.	.	.
4C#X/	4e/ 4a	.	.	.	.	.	.	.
4D/	4f#/) 4a	]]	.	.	.	.	.	.
=20	=20	=20	=20	=20	=20	=20	=20	=20
2GG\ 2G	2B/ 2g	.	1r	.	.	1r	.	.
2r	2r	.	.	.	.	.	.	.
=21	=21	=21	=21	=21	=21	=21	=21	=21
!	!	!	!	!	!	!LO:TX:a:t=2e. STROPHE.	!	!LO:DY:a
2GG\ 2G	4g/	p	4B/	Lau-	.	4g/	Lau-	p
.	(8g/L 8b	.	4d/	-dis	.	4b/	-dis	.
.	8d/J)	.	.	.	.	.	.	.
4F#\	4dd\	.	4c/	the-	.	4a/	the-	.
4G\	4r	.	4B/	-ma	.	4g/	-ma	.
=22	=22	=22	=22	=22	=22	=22	=22	=22
4D\	(4f#/ 4a	.	4d/	spe-	.	4a/	spe-	.
4F#\	8a/L 8cc	.	4a/	-ci-	.	4cc/	-ci-	.
.	8d/J)	.	.	.	.	.	.	.
4D\	4dd\	.	4g/	-a-	.	4b/	-a-	.
4C\	4r	.	4d/	-lis	.	4a/	-lis	.
=23	=23	=23	=23	=23	=23	=23	=23	=23
*^	*	*	*	*	*	*	*	*
4BB/	2ryy	(4g/	.	4B/	Pa-	.	4g/	Pa-	.
[4GG/	.	8g/L 8b	.	4g/	-nis	.	4b/	-nis	.
.	.	8d/J)	.	.	.	.	.	.	.
4D/	2GG\]	4dd\	.	4d/	vi-	.	4a/	vi-	.
4G/	.	4r	.	4B/	-vus	.	4g/	-vus	.
*v	*v	*	*	*	*	*	*	*	*
=24	=24	=24	=24	=24	=24	=24	=24	=24
!	!	!	!	!	!	!	!	!LO:DY:a
4D\	(4f#/ 4a	.	4d/	et	<	4a/	et	<
4F#\	8a/L 8cc	.	4a/	vi-	.	4cc\	vi-	.
.	8d/J)	.	.	.	.	.	.	.
4D/	4dd\	.	4g/	-ta-	.	4b\	-ta-	.
4r	4ff#t\	.	4d/	-lis	[[	4a\	-lis	[[
=25	=25	=25	=25	=25	=25	=25	=25	=25
*^	*^	*	*	*	*	*	*	*
(<8E/L	2GG\	2gg/	4cc\	.	(8e/L	Ho-	.	4cc\	Ho-	.
8F#/J	.	.	.	.	8f#/J)	.	.	.	.	.
4G/)	.	.	4b\	.	4g/	-di-	.	4b\	-di-	.
4D#X/	4DD#X\	4ff#\	4a\ 4b	.	4f#/	-e	.	4a/	-e	.
4E/	4EE\	4ee\	4g\ 4b	.	4g/	pro	.	4g/	pro	.
*v	*v	*	*	*	*	*	*	*	*	*
*	*v	*v	*	*	*	*	*	*	*
=26	=26	=26	=26	=26	=26	=26	=26	=26
4DD/ 4D	4dd\	.	4d/	po-	.	4b/	po-	.
4F#\	8a/L	.	4c/	-ni-	.	4a/	-ni-	.
.	8b/J	.	.	.	.	.	.	.
4GG/ 4G	4g/	.	4B/	-tur	.	4g/	-tur	.
4r	4r	.	4r	.	.	4r	.	.
=27	=27	=27	=27	=27	=27	=27	=27	=27
!	!	!	!	!	!LO:DY:a	!	!	!LO:DY:a
4GG/	8r	f	4b\	Quem	f	4dd\	Quem	f
.	(<8d/L	.	.	.	.	.	.	.
4G\	8g/	.	4b\	in	.	4dd\	in	.
.	8b/J	.	.	.	.	.	.	.
4GG/	8b\L) 8dd	.	4b\	sa-	.	4dd\	sa-	.
.	8g\	.	.	.	.	.	.	.
4G\	8.cc\ 8.ee	.	8.cc^\L	-crae	.	8.ee^\L	-crae	.
.	16b\Jk 16dd	.	16b\Jk	.	.	16dd\Jk	.	.
=28	=28	=28	=28	=28	=28	=28	=28	=28
4DD/	8r	.	4a/	men-	.	4cc\	men-	.
.	8d/L	.	.	.	.	.	.	.
4D/	8f#/	.	4a/	-sa	.	4cc\	-sa	.
.	8a/J	.	.	.	.	.	.	.
4DD/	8cc/L	.	4a/	coe-	.	4cc\	coe-	.
.	8a/J	.	.	.	.	.	.	.
4D/	8.b^\L 8.dd	.	(8.b/L	-ne	.	8.dd^\L	-ne	.
.	16a\Jk 16cc	.	16a/Jk)	.	.	16cc\Jk	.	.
=29	=29	=29	=29	=29	=29	=29	=29	=29
4GG/	8r	.	4g/	tur-	.	4b\	tur-	.
.	(8d/L	.	.	.	.	.	.	.
4G\	8g/	.	4g/	-be	.	4b\	-be	.
.	8b/J	.	.	.	.	.	.	.
4GG/	8dd\L)	.	4g/	fra-	.	4b\	fra-	.
.	8g\J	.	.	.	.	.	.	.
8qF#/	.	.	.	.	.	.	.	.
4G^\	8.a\L 8.cc	.	(8.a/L	-trum	.	8.cc^\L	-trum	.
.	16g\Jk 16b	.	16g/Jk)	.	.	16b\Jk	.	.
=30	=30	=30	=30	=30	=30	=30	=30	=30
4DD/	4f#/ 4a	.	(8f#/L	du-	.	(8a/L	du-	.
.	.	.	8e/J)	.	.	8g/J)	.	.
2D^/	8dd\L	.	(8d/L	-o-	.	(8f#/L	-o-	.
.	8ee\J	.	8e/J)	.	.	8g/J)	.	.
.	(8ff#\L	.	4f#/	-de	.	4a/	-de	.
.	8ee\	.	.	.	.	.	.	.
4C/	8ff#\	.	4f#/	nac	.	4a/	nac	.
.	8dd\J)	.	.	.	.	.	.	.
=31	=31	=31	=31	=31	=31	=31	=31	=31
4BB/	4g/	.	4g/	da-	.	4g/	da-	.
4GG/ 4G	8b\L 8gg	.	8g/L	-tum	.	4b\	-tum	.
.	8dd\J	.	8fn/J	.	.	.	.	.
4GG/ 4E	(8cc\L	.	4e/	non	.	4cc\	non	.
.	8gg\	.	.	.	.	.	.	.
4GG/ 4D	8a\	.	4f#X/	am-	.	4a\	am-	.
.	8ff#\J)	.	.	.	.	.	.	.
=32	=32	=32	=32	=32	=32	=32	=32	=32
4GG/	(8gg\L	.	4g/	-bi-	.	4b/	-bi-	.
.	8dd\	.	.	.	.	.	.	.
4D/	8ff#\	.	4d/	-gi-	.	4a/	-gi-	.
.	8dd\J)	.	.	.	.	.	.	.
4GG/ 4G	4b\ 4gg	.	4B/	-tur	.	4g/	-tur	.
4r	4dd^\	.	4r	.	.	4r	.	.
=33||	=33||	=33||	=33||	=33||	=33||	=33||	=33||	=33||
2r	4cc\	.	1r	.	.	1r	.	.
.	8b/L	.	.	.	.	.	.	.
.	8a/J	.	.	.	.	.	.	.
4r	4g/	.	.	.	.	.	.	.
4d\	4f#t/	.	.	.	.	.	.	.
=34	=34	=34	=34	=34	=34	=34	=34	=34
4c\	4.e/	.	1r	.	.	1r	.	.
8B\L	.	.	.	.	.	.	.	.
8A\J	8f#/	.	.	.	.	.	.	.
4G\	4g/	.	.	.	.	.	.	.
4Fn\	8a/L	.	.	.	.	.	.	.
.	8b/J	.	.	.	.	.	.	.
=35	=35	=35	=35	=35	=35	=35	=35	=35
*^	*	*	*	*	*	*	*	*
4E/	2ryy	(4cc\	.	1r	.	.	1r	.	.
4C'/	.	4ee'\)	.	.	.	.	.	.	.
4A/	2D\ 2A	2f#t/	sf	.	.	.	.	.	.
4c/	.	.	.	.	.	.	.	.	.
*v	*v	*	*	*	*	*	*	*	*
=36	=36	=36	=36	=36	=36	=36	=36	=36
4G\ 4B	4g/	.	1r	.	.	1r	.	.
4r	4r	.	.	.	.	.	.	.
4GG/ 4G	4b\ 4gg	f	.	.	.	.	.	.
4r	4r	.	.	.	.	.	.	.
=37||	=37||	=37||	=37||	=37||	=37||	=37||	=37||	=37||
!	!	!	!	!	!	!LO:TX:a:t=3e. STROPHE.	!	!
4GG/ 4G	4r	.	4B/	Sit	.	4g/	Sit	.
4r	4B/ 4g	p	4d/	laus	.	4b/	laus	.
4D/	4r	.	4c/	ple-	.	4a/	ple-	.
4r	4d/ 4dd	.	4B/	-na	.	4g/	-na	.
=38	=38	=38	=38	=38	=38	=38	=38	=38
4GG/ 4F#	4r	.	4d/	sit	.	4a/	sit	.
4r	4d/ 4a	.	4a/	so-	.	4cc\	so-	.
4D/	4r	.	4g/	-no-	.	4b\	-no-	.
4r	4d/ 4dd	.	4d/	-ra	.	4a\	-ra	.
=39	=39	=39	=39	=39	=39	=39	=39	=39
4GG/ 4G	4r	.	4B/	sit	.	4g/	sit	.
4r	4B/ 4g	.	4g/	ju-	.	4b/	ju-	.
4D/	4r	.	4d/	-cun-	.	4a/	-cun-	.
4r	4d/ 4dd	.	4B/	-da	.	4g/	-da	.
=40	=40	=40	=40	=40	=40	=40	=40	=40
4GG/ 4F#	4r	.	4d/	sit	.	4a\	sit	.
4r	4d/ 4a	.	4a/	de-	.	4cc\	de-	.
4D/	4r	.	4g/	-co-	.	4b\	-co-	.
4r	4d/ 4dd	.	4d/	-ra	.	4a\	-ra	.
=41	=41	=41	=41	=41	=41	=41	=41	=41
*	*^	*	*	*	*	*	*	*
!	!	!	!	!	!	!	!	!	!LO:DY:a
2GG/ 2G	4cc/	8e\L	.	8e/L	men-	.	4cc\	men-	<
.	.	8f#\J	.	8f#/J	.	.	.	.	.
.	4b/	4g\	.	4g/	-tis	.	4b\	-tis	.
4D/	4a/	4f#\	.	4f#/	ju-	.	4a/	ju-	.
4BB/	4g/	4g\	.	4g/	-bi-	.	4g/	-bi-	[
*	*v	*v	*	*	*	*	*	*	*
=42	=42	=42	=42	=42	=42	=42	=42	=42
!	!	!	!	!	!	!	!	!LO:DY:a
4DD/	(4d/ 4b	p	4d/	-la-	.	4b/	-la-	>
4D\ 4F#	4c/ 4a	.	4c/	-ti-	.	4a/	-ti-	.
4GG\ 4G	4B/) 4g	.	4B/	-o	.	4g/	-o	]
4r	4r	.	4r	.	.	4r	.	.
=43	=43	=43	=43	=43	=43	=43	=43	=43
!	!	!	!	!	!LO:DY:a	!	!	!LO:DY:a
4GG/	4b\ 4dd	f	4b\	Di-	f	4dd\	Di-	f
(4G\ 4B	4b\ 4dd	.	4b\	-es	.	4dd\	-es	.
4B\) 4d	4b\ 4dd	.	4b\	e-	.	4dd\	e-	.
4r	8.cc^\L 8.ee	.	8.cc^\L	-nim	.	8.ee^\L	-nim	.
.	16b\Jk 16dd	.	16b\Jk	.	.	16dd\Jk	.	.
=44	=44	=44	=44	=44	=44	=44	=44	=44
4DD/	4a\ 4cc	.	4a/	so-	.	4cc\	so-	.
(4F#\ 4A	4a\ 4cc	.	4a/	-lem-	.	4cc\	-lem-	.
4d\)	4a\ 4cc	.	4a/	-nis	.	4cc\	-nis	.
4r	8.b^\L 8.dd	.	8.b^/	a-	.	8.dd^\	a-	.
.	16a\Jk 16cc	.	16a/	-gi-	.	16cc\	-gi-	.
=45	=45	=45	=45	=45	=45	=45	=45	=45
4GG/	4g/ 4b	.	4g/	-tur	.	4b\	-tur	.
(4G\ 4B	4g/ 4b	.	4g/	in	.	4b\	in	.
4d\)	4g/ 4b	.	4g/	qua	.	4b\	qua	.
4r	8.a/L 8.cc	.	8.a/	men-	.	8.cc^\	men-	.
.	16g/Jk 16b	.	16g/	-sae	.	16b\	-sae	.
=46	=46	=46	=46	=46	=46	=46	=46	=46
2DD/	(8f#/L 8a	.	8f#/	pri-	.	8a/	pri-	.
.	8e/ 8g	.	8e/	-ma	.	8g/	-ma	.
.	8d/ 8f#	.	8d/	re-	.	8f#/	re-	.
.	8e/J) 8g	.	8e/	-co-	.	8g/	-co-	.
4D/	2f#/ 2a	.	4f#/	-li-	.	4a/	-li-	.
4C/	.	.	4f#/	-tur	.	4a/	-tur	.
=47	=47	=47	=47	=47	=47	=47	=47	=47
*	*^	*	*	*	*	*	*	*
!	!	!	!LO:DY:a	!	!	!LO:DY:a	!	!	!LO:DY:a
4BB/	4g/	4ryy	p <	4g/	hu-	p	4g/	hu-	p
4GG/	4b/	8g\L	.	8g/L	-jus	.	4b/	-jus	.
.	.	8fn\J	[	8fn/J	.	.	.	.	.
4C/	4cc/	4e\	>	4e/	ins-	.	4cc\	ins-	.
4D/	4a/	4f#X\	.	4f#X/	-ti-	.	4a/	-ti-	.
=48	=48	=48	=48	=48	=48	=48	=48	=48	=48
!	!	!	!	!	!	!	!LO:TX:a:t=rall.	!	!
4GG\ 4G	4b/	4g/	]	4g/	-tu-	.	4b/	-tu-	.
4D\	4a/	8d\L	.	4d/	-ti-	.	4a/	-ti-	.
.	.	8c\J	.	.	.	.	.	.	.
4GG;<\ 4G	4g;/	4B\	.	4B;/	-o.	.	4g;/	-o.	.
4r	4r	4ryy	.	4r	.	.	4r	.	.
*	*v	*v	*	*	*	*	*	*	*
==	==	==	==	==	==	==	==	==
*-	*-	*-	*-	*-	*-	*-	*-	*-
!!!RDF**kern: > = above
!!!RDF**kern: < = below
!!!system-decoration: [(s1,s2)][(s3,s4)]
!!!ENC: Andrzej Gręziak
!!!END: 2022-08-09
!!!ENC: Julita Ruszuk
!!!END: 2022-09-05
!!!YEC: Copyright 2022 Narodowy Instytut Fryderyka Chopina (https://polishscores.org)
!!!YEM: License CC-BY-4.0 (https://creativecommons.org/licenses/by/4.0)
